**kern
*staff1
*intro1[intro1a]
*head1[head1a]
*head1[head1b]
*head1[head1aa]
*solo1[solo1a]
*solo1[solo1b]
*solo1[solo1aa]
=1-
*clefG2
*k[]
*B-:
*M4/4
1r
=2
1r
=3
1r
=4
1r
=5
1r
=6
1r
=7
1r
=8
1r
=9
2r
*>intro1a
{4f/
4f/
=10||
4f/
4f/
4f/
4f/
=11
8e-/L
8d/
8e-/
8f/J
[2g-/
=12
1g-]}
=13
2r
{4f/
4f/
=14
4f/
4f/
4f/
4f/
=15
8e-/L
8f/
8e-/
8d-/J
[2B/
=16
2.B/]}
4r
=17
8r
{8F/L
8G/
8A/J
8c/L
8B-/
8d-/
[8f/J
=18
8f/L]
8f/J
[4e-/
8e-/]
4d-/
8f/
=19
8e-/L
8B/J}
4r
2r
=20
2r
8r
{8f/L
8a/
8b-/J
=21
4r
8r
[8d/
8d/L]
[8B-/
8B-/J]
8r
=22
8r
4F/
8f/
2B;/}
=23
1r
=24
2r
4r
8r
*>head1a
{8dd\
=25
8ff\L
8a\
8b-\
8cc\J
8dd\L
8ff\
8cc\
8bn\J
=26
8b-/L
8g/
8e-/
8c/J
8a/
4cc\
8b-\
=27
8dd/L
8f/J
8r
8dd\
8ee-/L
8b/
8a-/
8f/J
=28
4dd\
8dd\L
[8dd-\J
8dd-\]
24a/LL
24g/
24f/JJ
4e-/}
=29
8r
{8F/L
8A-/
8c/J
8g/L
8g-/
8f/
8e/J
=30
4e-/
8r
8d-/
8a/L
8en/
8g/
[8f/J
=31
8f/]
8r
8r
[8A-/
8A-/L]
8e-/
8g/
8f/J
=32
8d/L
8e-/
8B-/
8G/J
4d/}
8r
8dd\
=33
8r
8d/L
8e-/
8c/J
8d/L
8d-/
8c/
8B/J
=34:|!
8B-/L
8F#/J
12G/L
12B-/
12d/J
4.a/
16f/LL
16e-/JJ
=35
4d/
8d/L
[8e-/J
8e-/L]
8e-/J
4f/
=36
8r
8d/L
8e-/
8B-/J
8d/
4e-/
[8A-/
=37
4A-/]
4r
2r
=38||
8r
*>head1b
{8g/L
8a-/
8d-/J
8g/
4a-/
[8d-/
=39
4d-/]}
4r
2r
=40
8r
{8c/L
8d/
8G/J
12c/L
12d/
12c/J
8B-/L
[8d/J
=41
4d/]
4r
8a/L
16a-/L
16g/JJ
4g-/
=42
8r
[8a/L
8a/]
16a-/L
16g/JJ
4g-/
4r
=43
12f/L
12g/
12f/J
8e-/L
8c/J
8f/
4e-/
8f/}
=44
2r
4r
8r
*>head1aa
{8dd\
=45
8ff\L
8a\
8b-\
8cc\J
8dd\L
8ff\
8cc\
8bn\J
=46||
8b-/L
8g/
8e-/
8c/J
8a/
4cc\
8b-\
=47
8dd/L
8f/J
8r
8dd\
8ee-/L
8b/
8a-/
8f/J
=48
4dd\
8dd\L
[8dd-\J
8dd-\]
24a/LL
24g/
24f/JJ
4e-/}
=49
8r
{8d/L
8e-/
8B-/J
8d/L
8d-/
8c/
8Bn/J
=50
8B-/L
8A-/J
12An/L
12c/
12e-/J
4.a/
8g/
=51
8d/
8r
8d/L
8e-/J
8r
8e-/L
8f/
[8d/J
=52
8d/L]
8B-/J
8r
8B-/}
2r
=53
*>solo1a
{8f/L
8g/
8b-/
[8dd/J
4.dd\]
8b-\
=54||
8cc\L
8b-\J}
4r
2r
=55
8r
{8c#/
12d/L
12f/
12a/J
8cc/L
8a/
8b/
8a-/J
=56
8e/L
8d-/
8b-/
8a/J
8g/L
8g-/
8f/
8e/J
=57
8e-/L
8B-/
8Bn/
8c/J
8A-/L
8c/
8g/
8f/J
=58
8e-/L
8A/
8B-/
8c/J
8d-/L
8B-/
8G/
8A/J
=59
8c/L
8B-/J
12A/L
12B-/
12d/J
12f/L
12g/
12a/J
12b-\L
12cc\
12cc#\J
=60
8dd/L
[8f/J
4f/]}
2r
=61
4r
{8dd-\L
8ddn\J
8gg\L
8gg-\
8ff\
8ee\J
=62||
8ee-\L
8a\
8b-\
8cc\J
4.dd\
8b-\
=63
8cc\L
8b-\
8bn\
8a-\J
8e/L
8c#/
8b-/
8an/J
=64
8g/L
8g-/
8f/
8e/J
8e-/L
8c#/
8d/
8f/J
=65
8c/L
8B-/
8Bn/
8c/J
8A-/L
8c/
8g/
8f/J
=66
8e-/L
8A/
8B-/
8c/J
8d-/L
8B-/
8G/
8A/J
=67
8c/L
8A/
8B-/
8d/J}
2r
=68
1r
=69
8r
*>solo1b
{8dd\
12cc\L
12b\
12cc\J
8ee-/L
8b/
8g/
8e-/J
=70||
8d/L
8f#/
8a/
8cc/J
8b-/L
8f#/
8e-/
8c/J
=71
8B/L
8d/
8f/
8a/J
8b-/L
8g-/
8e-/
8c/J
=72
8B/L
8e-/J
12g\L
12b-\
12dd\J
8ee-/L
8bn/
8a-/
8f/J
=73
8e/L
8g/
8b-/
8dd/J
12a\L
12b-\
12bn\J
8cc\L
8b\J
=74
8b-/L
8a/
8g/
8g-/J
4f/}
4r
=75
4r
8r
*>solo1aa
{16c/LL
16e-/JJ
8g\L
8b-\
8dd\
8cc\J
=76
8r
8b-\
8r
8g/
8a/L
[8ff#/J
4ff#\]
=77
8ff\L
8a\
8b-\
8ee-\J
8dd\L
8dd-\
8cc\
8bn\J
=78||
4b-\
8r
8g/
8e-/L
8c/
8d/
8f/J
=79
8r
8A/
12B/L
12d/
12f/J
8a/L
8a-/
8g/
8g-/J
=80
8f/L
8e/
8e-/
8B-/J
8G/L
8F#/
8d/
[8c/J
=81
4c/]}
4r
4r
8r
{[8cc\
=82
8cc\]
4b-\
8dd-\
8b-\L
8b-\J}
4r
=83
4r
{8cc\L
8b\J
8b-/L
8a-/
8g/
8g-/J
=84
8f/L
8e-/
8d/
8c/J
12B-/L
12Bn/
12c/J
8B-/L
8c/J
=85
2d/}
2r
==
*-
